images/header/12.svg

<svg width="20" height="20" viewBox="0 0 20 20" fill="none" xmlns="http://www.w3.org/2000/svg">
<rect width="20" height="20" rx="10" fill="#7DB54F"/>
<path d="M5.13078 13.26H6.53078V8.42L6.63078 7.83L6.23078 8.3L5.13078 9.09L4.75078 8.58L6.95078 6.88H7.31078V13.26H8.68078V14H5.13078V13.26ZM13.96 8.59C13.96 8.94333 13.8933 9.30667 13.76 9.68C13.6333 10.0467 13.4633 10.4167 13.25 10.79C13.0433 11.1633 12.81 11.53 12.55 11.89C12.29 12.2433 12.03 12.58 11.77 12.9L11.28 13.33V13.37L11.92 13.26H14.1V14H10.12V13.71C10.2667 13.5567 10.4433 13.3667 10.65 13.14C10.8567 12.9133 11.07 12.6633 11.29 12.39C11.5167 12.11 11.7367 11.8167 11.95 11.51C12.17 11.1967 12.3667 10.88 12.54 10.56C12.72 10.24 12.8633 9.92333 12.97 9.61C13.0767 9.29667 13.13 9 13.13 8.72C13.13 8.39333 13.0367 8.12333 12.85 7.91C12.6633 7.69 12.38 7.58 12 7.58C11.7467 7.58 11.5 7.63333 11.26 7.74C11.02 7.84 10.8133 7.95667 10.64 8.09L10.31 7.52C10.5433 7.32 10.82 7.16333 11.14 7.05C11.46 6.93667 11.8033 6.88 12.17 6.88C12.4567 6.88 12.71 6.92333 12.93 7.01C13.15 7.09 13.3367 7.20667 13.49 7.36C13.6433 7.51333 13.76 7.69667 13.84 7.91C13.92 8.11667 13.96 8.34333 13.96 8.59Z" fill="white"/>
</svg>

<svg width="20" height="20" fill="none" xmlns="http://www.w3.org/2000/svg"><rect width="20" height="20" rx="10" fill="#7DB54F"/><path d="M5.13 13.26h1.4V8.42l.1-.59-.4.47-1.1.79-.38-.51 2.2-1.7h.36v6.38h1.37V14H5.13v-.74Zm8.83-4.67c0 .35-.07.72-.2 1.09a10.88 10.88 0 0 1-1.21 2.21c-.26.35-.52.69-.78 1.01l-.49.43v.04l.64-.11h2.18V14h-3.98v-.29a33.15 33.15 0 0 0 1.17-1.32 15.09 15.09 0 0 0 1.25-1.83c.18-.32.32-.64.43-.95.1-.31.16-.61.16-.89 0-.33-.1-.6-.28-.81-.19-.22-.47-.33-.85-.33-.25 0-.5.05-.74.16-.24.1-.45.22-.62.35l-.33-.57c.23-.2.51-.36.83-.47.32-.11.66-.17 1.03-.17.29 0 .54.04.76.13a1.5 1.5 0 0 1 .91.9c.08.2.12.43.12.68Z" fill="#fff"/></svg>
